!!!OTL: Mein Pfeifchen.
!!!OTL-incipit:WENN MEIN PFEIFCHEN DAMPFT UND GLUEHT
!!!ARE: Europa, Mitteleuropa, Deutschland
!!!SCT: F0052
!!!TXL: @@DE
!!!YEM: Copyright 1995, estate of Helmut Schaffrath.
**kern	**text
*ICvox	*
*clefG2	*
*M3/4	*
*k[f#c#]	*
*D:	*
=1	=1
!LO:TX:a:t=Behaglich.	!
{4.d	1._Wenn
8f#	mein
8f#	Pfeiſchen
8a	.
=2	=2
16aL	dampft
16gJ	.
16f#L	und
16gJ	.
4e	glüht,
4r}	.
=3	=3
{4.d	und
8f#	der
8f#	Rauch
8a	von
=4	=4
4a	Blät-
4e	-tern
4r}	.
=5	=5
{4.d	ſanft
8f#	mir
8f#	um
8a	die
=6	=6
16aL	Na-
16gJ	.
16f#L	-ſe
16gJ	.
4e	ʒieht,
4r}	.
=7	=7
{8.a	o
16dd	dann
8b	tauſch'
16aL	ich
16gJ	.
16f#L	nicht
16eJ	.
16dL	mit
16c#J	.
=8	=8
4e	Göt-
4d	-tern.
4r}	.
=9	=9
{4.e	Schwin-
8a	-det
8a	dann
8e	der
=10	=10
16gL	Rauch
16f#J	.
16eL	im
16f#J	.
4d	Wind,
4r}	.
=11	=11
{4.e	fang'
8cc#	ich
8cc#	an
8g#	ʒu
=12	=12
4b	la-
4a	-chen,
4r}	.
=13	=13
{4.d	den-
8f#	-ke:
8f#	ſo
8a	ver-
=14	=14
16aL	-gänglich
16gJ	.
16f#L	.
16gJ	.
4e}	ſind
{8.a	al-
16dd	-le,
=15	=15
4.dd	al-
16cc#L	-le
16bJ	.
16aL	an-
16gJ	.
16f#L	-ore
16eJ	.
=16	=16
4e	Sa-
4d	-chen.
4r}	.
==	==
!!!AGN: Scherz - Lied, Lob des Tabaks
!!!ONB: ESAC (Essen Associative Code) Database: FINK
!!!AMT: simple triple
!!!AIN: vox
!!!EED: Helmut Schaffrath
!!!EEV: 1.0
!!!GTL: Volkslieder
!!!source: Musikalischer Hausschatz der Deutschen. Eine Sammlung von über 1000 Liedern und Gesängen mit Singstimmen und Klavierbegleitung. Leipzig, Litterarisches Verlags-Haus.
!!!page: 30
!!!URL-scan: https://www.digitale-sammlungen.de/en/view/bsb11144622?page=38,39
!!!ENC: Anna Maria Matuszewska
!!!EEV: 2024/07/25
*-	*-
